;FLAVOR:Marlin
;TIME:221
;Filament used: 0.0417055m
;Layer height: 0.12
;MINX:104.5
;MINY:102.5
;MINZ:0.12
;MAXX:130.5
;MAXY:132.5
;MAXZ:4.56
;Generated with Cura_SteamEngine 4.11.0
M140 S50
M105
M190 S50
M104 S200
M105
M109 S200
M82 ;absolute extrusion mode
; Ender 3 Custom Start G-code
G92 E0 ; Reset Extruder
G28 ; Home all axes
G1 Z2.0 F3000 ; Move Z Axis up little to prevent scratching of Heat Bed
G1 X0.1 Y20 Z0.3 F5000.0 ; Move to start position
G1 X0.1 Y200.0 Z0.3 F1500.0 E15 ; Draw the first line
G1 X0.4 Y200.0 Z0.3 F5000.0 ; Move to side a little
G1 X0.4 Y20 Z0.3 F1500.0 E30 ; Draw the second line
G92 E0 ; Reset Extruder
G1 Z2.0 F3000 ; Move Z Axis up little to prevent scratching of Heat Bed
G1 X5 Y20 Z0.3 F5000.0 ; Move over to prevent blob squish
G92 E0
G92 E0
G1 F2700 E-5
;LAYER_COUNT:38
;LAYER:0
M107
G0 F6000 X107.698 Y105.764 Z0.12
;TYPE:SKIRT
G1 F2700 E0
G1 F1200 X108.386 Y105.127 E0.01871
G1 X109.126 Y104.551 E0.03742
G1 X109.912 Y104.039 E0.05614
G1 X110.739 Y103.597 E0.07486
G1 X111.601 Y103.227 E0.09358
G1 X112.491 Y102.931 E0.11229
G1 X113.403 Y102.713 E0.13101
G1 X114.33 Y102.572 E0.14972
G1 X115.201 Y102.513 E0.16714
G1 X115.522 Y102.504 E0.17355
G1 X115.83 Y102.5 E0.1797
G1 X118.793 Y102.5 E0.23883
G1 X119.649 Y102.511 E0.25591
G1 X120.585 Y102.565 E0.27462
G1 X121.513 Y102.697 E0.29333
G1 X122.427 Y102.909 E0.31205
G1 X123.319 Y103.198 E0.33076
G1 X124.184 Y103.561 E0.34948
G1 X125.014 Y103.997 E0.36819
G1 X125.805 Y104.502 E0.38692
G1 X126.549 Y105.073 E0.40564
G1 X127.242 Y105.705 E0.42435
G1 X127.879 Y106.393 E0.44306
G1 X128.454 Y107.134 E0.46178
G1 X128.965 Y107.92 E0.48049
G1 X129.407 Y108.748 E0.49922
G1 X129.776 Y109.61 E0.51793
G1 X130.071 Y110.5 E0.53664
G1 X130.289 Y111.412 E0.55536
G1 X130.429 Y112.34 E0.57409
G1 X130.487 Y113.201 E0.59131
G1 X130.496 Y113.521 E0.59769
G1 X130.5 Y113.83 E0.60386
G1 X130.499 Y120.9 E0.74495
G1 X130.49 Y121.627 E0.75946
G1 X130.439 Y122.564 E0.77819
G1 X130.307 Y123.492 E0.79689
G1 X130.098 Y124.406 E0.8156
G1 X129.811 Y125.299 E0.83432
G1 X129.449 Y126.165 E0.85305
G1 X129.015 Y126.996 E0.87176
G1 X128.511 Y127.787 E0.89048
G1 X127.942 Y128.532 E0.90919
G1 X127.311 Y129.227 E0.92792
G1 X126.624 Y129.865 E0.94663
G1 X125.885 Y130.442 E0.96534
G1 X125.099 Y130.954 E0.98406
G1 X124.273 Y131.397 E1.00276
G1 X123.411 Y131.769 E1.0215
G1 X122.522 Y132.065 E1.0402
G1 X121.61 Y132.285 E1.05892
G1 X120.683 Y132.426 E1.07763
G1 X119.799 Y132.487 E1.09532
G1 X119.478 Y132.496 E1.10172
G1 X119.17 Y132.5 E1.10787
G1 X116.065 Y132.499 E1.16984
G1 X115.367 Y132.49 E1.18377
G1 X114.431 Y132.438 E1.20247
G1 X113.502 Y132.306 E1.2212
G1 X112.588 Y132.096 E1.23991
G1 X111.695 Y131.809 E1.25863
G1 X110.83 Y131.446 E1.27735
G1 X109.999 Y131.012 E1.29606
G1 X109.208 Y130.508 E1.31478
G1 X108.463 Y129.938 E1.3335
G1 X107.769 Y129.307 E1.35222
G1 X107.132 Y128.62 E1.37091
G1 X106.555 Y127.88 E1.38964
G1 X106.043 Y127.094 E1.40836
G1 X105.6 Y126.267 E1.42708
G1 X105.229 Y125.406 E1.44579
G1 X104.933 Y124.516 E1.46451
G1 X104.714 Y123.604 E1.48323
G1 X104.573 Y122.677 E1.50194
G1 X104.513 Y121.788 E1.51972
G1 X104.504 Y121.455 E1.52637
G1 X104.5 Y121.158 E1.53229
G1 X104.501 Y114.025 E1.67464
G1 X104.51 Y113.36 E1.68791
G1 X104.563 Y112.424 E1.70662
G1 X104.695 Y111.495 E1.72535
G1 X104.906 Y110.581 E1.74407
G1 X105.194 Y109.689 E1.76277
G1 X105.557 Y108.824 E1.78149
G1 X105.992 Y107.993 E1.80021
G1 X106.496 Y107.203 E1.81891
G1 X107.066 Y106.458 E1.83763
G1 X107.698 Y105.764 E1.85636
G0 F6000 X108.089 Y105.939
G1 F1200 X108.774 Y105.323 E1.87475
G1 X109.51 Y104.77 E1.89312
G1 X110.291 Y104.282 E1.9115
G1 X111.111 Y103.864 E1.92986
G1 X111.965 Y103.519 E1.94825
G1 X112.845 Y103.249 E1.96661
G1 X113.745 Y103.057 E1.98498
G1 X114.659 Y102.943 E2.00336
G1 X115.212 Y102.913 E2.01441
G1 X115.533 Y102.904 E2.02082
G1 X115.83 Y102.9 E2.02675
G1 X118.793 Y102.9 E2.08588
G1 X119.643 Y102.911 E2.10284
G1 X120.562 Y102.964 E2.12121
G1 X121.473 Y103.097 E2.13958
G1 X122.369 Y103.308 E2.15795
G1 X123.243 Y103.596 E2.17632
G1 X124.09 Y103.959 E2.19471
G1 X124.901 Y104.394 E2.21307
G1 X125.671 Y104.898 E2.23144
G1 X126.395 Y105.467 E2.24982
G1 X127.067 Y106.097 E2.2682
G1 X127.682 Y106.782 E2.28657
G1 X128.235 Y107.518 E2.30494
G1 X128.722 Y108.299 E2.32331
G1 X129.139 Y109.12 E2.34168
G1 X129.484 Y109.974 E2.36006
G1 X129.753 Y110.854 E2.37843
G1 X129.945 Y111.755 E2.39681
G1 X130.058 Y112.668 E2.41517
G1 X130.087 Y113.212 E2.42604
G1 X130.096 Y113.532 E2.43243
G1 X130.1 Y113.83 E2.43838
G1 X130.099 Y120.895 E2.57937
G1 X130.09 Y121.622 E2.59388
G1 X130.039 Y122.541 E2.61225
G1 X129.908 Y123.453 E2.63063
G1 X129.698 Y124.349 E2.649
G1 X129.412 Y125.224 E2.66737
G1 X129.051 Y126.071 E2.68574
G1 X128.617 Y126.883 E2.70412
G1 X128.115 Y127.655 E2.72249
G1 X127.547 Y128.38 E2.74087
G1 X126.919 Y129.053 E2.75924
G1 X126.235 Y129.669 E2.77761
G1 X125.5 Y130.223 E2.79598
G1 X124.72 Y130.712 E2.81435
G1 X123.9 Y131.131 E2.83273
G1 X123.047 Y131.477 E2.8511
G1 X122.167 Y131.748 E2.86947
G1 X121.267 Y131.941 E2.88784
G1 X120.353 Y132.056 E2.90622
G1 X119.788 Y132.087 E2.91752
G1 X119.467 Y132.096 E2.92392
G1 X119.17 Y132.1 E2.92985
G1 X116.07 Y132.099 E2.99172
G1 X115.372 Y132.09 E3.00565
G1 X114.453 Y132.038 E3.02402
G1 X113.542 Y131.907 E3.04238
G1 X112.646 Y131.697 E3.06075
G1 X111.771 Y131.41 E3.07912
G1 X110.924 Y131.048 E3.09751
G1 X110.112 Y130.614 E3.11588
G1 X109.341 Y130.112 E3.13424
G1 X108.616 Y129.544 E3.15262
G1 X107.943 Y128.915 E3.171
G1 X107.328 Y128.231 E3.18936
G1 X106.774 Y127.496 E3.20773
G1 X106.286 Y126.715 E3.2261
G1 X105.867 Y125.895 E3.24448
G1 X105.521 Y125.042 E3.26285
G1 X105.251 Y124.162 E3.28122
G1 X105.058 Y123.261 E3.29961
G1 X104.944 Y122.348 E3.31797
G1 X104.913 Y121.777 E3.32938
G1 X104.904 Y121.444 E3.33603
G1 X104.9 Y121.158 E3.34174
G1 X104.901 Y114.031 E3.48396
G1 X104.91 Y113.366 E3.49724
G1 X104.962 Y112.446 E3.51563
G1 X105.094 Y111.535 E3.534
G1 X105.305 Y110.639 E3.55237
G1 X105.592 Y109.764 E3.57074
G1 X105.955 Y108.918 E3.58911
G1 X106.389 Y108.106 E3.60749
G1 X106.892 Y107.335 E3.62586
G1 X107.461 Y106.611 E3.64423
G1 X108.089 Y105.939 E3.66259
G0 F6000 X108.481 Y106.117
G1 F1200 X109.162 Y105.524 E3.68061
G1 X109.894 Y104.994 E3.69864
G1 X110.669 Y104.531 E3.71666
G1 X111.482 Y104.138 E3.73468
G1 X112.327 Y103.818 E3.75271
G1 X113.196 Y103.575 E3.77072
G1 X114.084 Y103.409 E3.78875
G1 X115.223 Y103.313 E3.81156
G1 X115.544 Y103.304 E3.81797
G1 X115.83 Y103.3 E3.82367
G1 X118.793 Y103.3 E3.8828
G1 X119.637 Y103.311 E3.89965
G1 X120.539 Y103.364 E3.91768
G1 X121.432 Y103.496 E3.93569
G1 X122.31 Y103.707 E3.95371
G1 X123.166 Y103.995 E3.97174
G1 X123.993 Y104.357 E3.98975
G1 X124.785 Y104.792 E4.00779
G1 X125.536 Y105.294 E4.02581
G1 X126.239 Y105.861 E4.04384
G1 X126.889 Y106.488 E4.06186
G1 X127.481 Y107.17 E4.07988
G1 X128.011 Y107.901 E4.0979
G1 X128.473 Y108.677 E4.11592
G1 X128.866 Y109.49 E4.13394
G1 X129.184 Y110.335 E4.15196
G1 X129.427 Y111.205 E4.16999
G1 X129.592 Y112.093 E4.18801
G1 X129.687 Y113.223 E4.21064
G1 X129.696 Y113.543 E4.21703
G1 X129.7 Y113.83 E4.22276
G1 X129.699 Y120.89 E4.36365
G1 X129.69 Y121.617 E4.37816
G1 X129.639 Y122.519 E4.39619
G1 X129.508 Y123.413 E4.41422
G1 X129.299 Y124.291 E4.43223
G1 X129.013 Y125.148 E4.45026
G1 X128.652 Y125.976 E4.46828
G1 X128.22 Y126.768 E4.48629
G1 X127.719 Y127.52 E4.50432
G1 X127.153 Y128.224 E4.52235
G1 X126.528 Y128.875 E4.54036
G1 X125.847 Y129.469 E4.55839
G1 X125.116 Y130 E4.57642
G1 X124.342 Y130.464 E4.59443
G1 X123.529 Y130.858 E4.61246
G1 X122.685 Y131.178 E4.63047
G1 X121.815 Y131.423 E4.64851
G1 X120.928 Y131.589 E4.66652
G1 X119.777 Y131.687 E4.68957
G1 X119.456 Y131.696 E4.69598
G1 X119.17 Y131.7 E4.70168
G1 X116.075 Y131.699 E4.76345
G1 X115.377 Y131.69 E4.77738
G1 X114.476 Y131.639 E4.79539
G1 X113.582 Y131.507 E4.81342
G1 X112.704 Y131.298 E4.83143
G1 X111.847 Y131.011 E4.84947
G1 X111.02 Y130.65 E4.86748
G1 X110.227 Y130.217 E4.88551
G1 X109.476 Y129.716 E4.90352
G1 X108.772 Y129.15 E4.92155
G1 X108.121 Y128.524 E4.93957
G1 X107.528 Y127.843 E4.95759
G1 X106.998 Y127.112 E4.97561
G1 X106.534 Y126.337 E4.99364
G1 X106.14 Y125.524 E5.01167
G1 X105.82 Y124.68 E5.02968
G1 X105.576 Y123.81 E5.04771
G1 X105.41 Y122.922 E5.06574
G1 X105.313 Y121.767 E5.08887
G1 X105.304 Y121.434 E5.09552
G1 X105.3 Y121.158 E5.10103
G1 X105.301 Y114.036 E5.24315
G1 X105.31 Y113.371 E5.25643
G1 X105.362 Y112.469 E5.27446
G1 X105.494 Y111.576 E5.29247
G1 X105.704 Y110.698 E5.31049
G1 X105.991 Y109.841 E5.32852
G1 X106.353 Y109.014 E5.34654
G1 X106.786 Y108.222 E5.36455
G1 X107.288 Y107.471 E5.38258
G1 X107.855 Y106.767 E5.40062
G1 X108.481 Y106.117 E5.41863
G1 F2700 E0.41863
;MESH:MWS_HopUpArmPin_v7.stl
G0 F6000 X115.914 Y112.835
G0 X115.914 Y113.914
G0 X116.682 Y120.318
G0 X118.5 Y120.5
;TYPE:WALL-INNER
G1 F2700 E5.41863
G1 F1200 X116.5 Y120.5 E5.45854
G1 X116.5 Y114.5 E5.57827
G1 X118.5 Y114.5 E5.61819
G1 X118.5 Y120.5 E5.73792
G0 F6000 X118.9 Y120.9
G1 F1200 X116.1 Y120.9 E5.7938
G1 X116.1 Y114.1 E5.9295
G1 X118.9 Y114.1 E5.98538
G1 X118.9 Y120.9 E6.12108
G0 F6000 X119.3 Y121.3
;TYPE:WALL-OUTER
G1 F1200 X115.7 Y121.3 E6.19292
G1 X115.7 Y113.7 E6.34459
G1 X119.3 Y113.7 E6.41643
G1 X119.3 Y121.3 E6.5681
G0 F6000 X119.03 Y121.03
G0 X118.39 Y120.11
G0 X118.11 Y120.11
;TYPE:SKIN
G1 F1200 X116.89 Y120.11 E6.59244
G1 X116.89 Y114.89 E6.69661
G1 X118.11 Y114.89 E6.72096
G1 X118.11 Y120.11 E6.82513
G0 F6000 X118.39 Y120.11
G0 X117.12 Y120.39
G0 X117.12 Y119.949
G1 F1200 X117.049 Y119.877 E6.82715
G0 F6000 X117.049 Y119.312
G1 F1200 X117.686 Y119.949 E6.84513
G0 F6000 X117.949 Y119.646
G1 F1200 X117.049 Y118.746 E6.87053
G0 F6000 X117.049 Y118.18
G1 F1200 X117.949 Y119.081 E6.89594
G0 F6000 X117.949 Y118.515
G1 F1200 X117.049 Y117.615 E6.92134
G0 F6000 X117.049 Y117.049
G1 F1200 X117.949 Y117.949 E6.94674
G0 F6000 X117.949 Y117.383
G1 F1200 X117.049 Y116.483 E6.97214
G0 F6000 X117.049 Y115.918
G1 F1200 X117.949 Y116.818 E6.99754
G0 F6000 X117.949 Y116.252
G1 F1200 X117.049 Y115.352 E7.02294
G0 F6000 X117.312 Y115.049
G1 F1200 X117.949 Y115.686 E7.04092
G0 F6000 X117.949 Y115.121
G1 F1200 X117.878 Y115.049 E7.04293
G0 F6000 X117.878 Y114.31
;MESH:NONMESH
G0 F300 X117.878 Y114.31 Z0.24
G0 F6000 X118.318 Y114.682
G0 X118.5 Y120.5
;TIME_ELAPSED:24.792486
;LAYER:1
M106 S85
;TYPE:WALL-INNER
;MESH:MWS_HopUpArmPin_v7.stl
G1 F600 X116.5 Y120.5 E7.08285
G1 X116.5 Y114.5 E7.20258
G1 X118.5 Y114.5 E7.2425
G1 X118.5 Y120.5 E7.36223
G0 F7500 X118.9 Y120.9
G1 F600 X116.1 Y120.9 E7.41811
G1 X116.1 Y114.1 E7.55381
G1 X118.9 Y114.1 E7.60969
G1 X118.9 Y120.9 E7.74539
G0 F7500 X119.3 Y121.3
;TYPE:WALL-OUTER
G1 F600 X115.7 Y121.3 E7.81723
G1 X115.7 Y113.7 E7.9689
G1 X119.3 Y113.7 E8.04074
G1 X119.3 Y121.3 E8.19241
G0 F7500 X119.03 Y121.03
G0 X118.39 Y120.11
G0 X118.11 Y120.11
;TYPE:SKIN
G1 F600 X116.89 Y120.11 E8.21675
G1 X116.89 Y114.89 E8.32092
G1 X118.11 Y114.89 E8.34527
G1 X118.11 Y120.11 E8.44944
G0 F7500 X117.948 Y119.638
G1 F600 X117.638 Y119.949 E8.4582
G0 F7500 X117.072 Y119.949
G1 F600 X117.948 Y119.073 E8.48293
G0 F7500 X117.948 Y118.507
G1 F600 X117.05 Y119.406 E8.50828
G0 F7500 X117.05 Y118.84
G1 F600 X117.948 Y117.941 E8.53364
G0 F7500 X117.948 Y117.376
G1 F600 X117.05 Y118.274 E8.55898
G0 F7500 X117.05 Y117.709
G1 F600 X117.948 Y116.81 E8.58434
G0 F7500 X117.948 Y116.244
G1 F600 X117.05 Y117.143 E8.6097
G0 F7500 X117.05 Y116.577
G1 F600 X117.948 Y115.679 E8.63504
G0 F7500 X117.948 Y115.113
G1 F600 X117.05 Y116.012 E8.6604
G0 F7500 X117.05 Y115.446
G1 F600 X117.446 Y115.049 E8.67159
G0 F7500 X117.446 Y114.31
;MESH:NONMESH
G0 F300 X117.446 Y114.31 Z0.36
G0 F7500 X118.318 Y114.682
G0 X118.5 Y120.5
;TIME_ELAPSED:34.181398
;LAYER:2
M106 S170
;TYPE:WALL-INNER
;MESH:MWS_HopUpArmPin_v7.stl
G1 F600 X116.5 Y120.5 E8.7115
G1 X116.5 Y114.5 E8.83124
G1 X118.5 Y114.5 E8.87115
G1 X118.5 Y120.5 E8.99089
G0 F9000 X118.9 Y120.9
G1 F600 X116.1 Y120.9 E9.04676
G1 X116.1 Y114.1 E9.18247
G1 X118.9 Y114.1 E9.23834
G1 X118.9 Y120.9 E9.37404
G0 F9000 X119.3 Y121.3
;TYPE:WALL-OUTER
G1 F600 X115.7 Y121.3 E9.44589
G1 X115.7 Y113.7 E9.59755
G1 X119.3 Y113.7 E9.66939
G1 X119.3 Y121.3 E9.82106
G0 F9000 X119.03 Y121.03
G0 X118.39 Y120.11
G0 X118.11 Y120.11
;TYPE:SKIN
G1 F600 X116.89 Y120.11 E9.84541
G1 X116.89 Y114.89 E9.94958
G1 X118.11 Y114.89 E9.97392
G1 X118.11 Y120.11 E10.07809
G0 F9000 X118.39 Y120.11
G0 X117.12 Y120.39
G0 X117.12 Y119.949
G1 F600 X117.049 Y119.877 E10.08011
G0 F9000 X117.049 Y119.312
G1 F600 X117.686 Y119.949 E10.09809
G0 F9000 X117.949 Y119.646
G1 F600 X117.049 Y118.746 E10.12349
G0 F9000 X117.049 Y118.18
G1 F600 X117.949 Y119.081 E10.1489
G0 F9000 X117.949 Y118.515
G1 F600 X117.049 Y117.615 E10.1743
G0 F9000 X117.049 Y117.049
G1 F600 X117.949 Y117.949 E10.1997
G0 F9000 X117.949 Y117.383
G1 F600 X117.049 Y116.483 E10.2251
G0 F9000 X117.049 Y115.918
G1 F600 X117.949 Y116.818 E10.2505
G0 F9000 X117.949 Y116.252
G1 F600 X117.049 Y115.352 E10.2759
G0 F9000 X117.312 Y115.049
G1 F600 X117.949 Y115.686 E10.29388
G0 F9000 X117.949 Y115.121
G1 F600 X117.878 Y115.049 E10.2959
G0 F9000 X117.878 Y114.31
;MESH:NONMESH
G0 F300 X117.878 Y114.31 Z0.48
G0 F9000 X118.318 Y114.682
G0 X118.5 Y120.5
;TIME_ELAPSED:43.678646
;LAYER:3
M106 S255
;TYPE:WALL-INNER
;MESH:MWS_HopUpArmPin_v7.stl
G1 F600 X116.5 Y120.5 E10.33581
G1 X116.5 Y114.5 E10.45555
G1 X118.5 Y114.5 E10.49546
G1 X118.5 Y120.5 E10.6152
G0 F9000 X118.9 Y120.9
G1 F600 X116.1 Y120.9 E10.67107
G1 X116.1 Y114.1 E10.80678
G1 X118.9 Y114.1 E10.86265
G1 X118.9 Y120.9 E10.99835
G0 F9000 X119.3 Y121.3
;TYPE:WALL-OUTER
G1 F600 X115.7 Y121.3 E11.0702
G1 X115.7 Y113.7 E11.22186
G1 X119.3 Y113.7 E11.2937
G1 X119.3 Y121.3 E11.44537
G0 F9000 X119.03 Y121.03
G0 X118.39 Y120.11
G0 X118.11 Y120.11
;TYPE:SKIN
G1 F600 X116.89 Y120.11 E11.46972
G1 X116.89 Y114.89 E11.57389
G1 X118.11 Y114.89 E11.59823
G1 X118.11 Y120.11 E11.7024
G0 F9000 X117.948 Y119.638
G1 F600 X117.638 Y119.949 E11.71117
G0 F9000 X117.072 Y119.949
G1 F600 X117.948 Y119.073 E11.73589
G0 F9000 X117.948 Y118.507
G1 F600 X117.05 Y119.406 E11.76125
G0 F9000 X117.05 Y118.84
G1 F600 X117.948 Y117.941 E11.7866
G0 F9000 X117.948 Y117.376
G1 F600 X117.05 Y118.274 E11.81195
G0 F9000 X117.05 Y117.709
G1 F600 X117.948 Y116.81 E11.83731
G0 F9000 X117.948 Y116.244
G1 F600 X117.05 Y117.143 E11.86266
G0 F9000 X117.05 Y116.577
G1 F600 X117.948 Y115.679 E11.88801
G0 F9000 X117.948 Y115.113
G1 F600 X117.05 Y116.012 E11.91336
G0 F9000 X117.05 Y115.446
G1 F600 X117.446 Y115.049 E11.92455
G0 F9000 X117.446 Y114.31
;MESH:NONMESH
G0 F300 X117.446 Y114.31 Z0.6
G0 F9000 X118.318 Y114.682
G0 X118.5 Y120.5
;TIME_ELAPSED:53.074145
;LAYER:4
;TYPE:WALL-INNER
;MESH:MWS_HopUpArmPin_v7.stl
G1 F600 X116.5 Y120.5 E11.96447
G1 X116.5 Y114.5 E12.0842
G1 X118.5 Y114.5 E12.12412
G1 X118.5 Y120.5 E12.24385
G0 F9000 X118.9 Y120.9
G1 F600 X116.1 Y120.9 E12.29973
G1 X116.1 Y114.1 E12.43543
G1 X118.9 Y114.1 E12.49131
G1 X118.9 Y120.9 E12.62701
G0 F9000 X119.3 Y121.3
;TYPE:WALL-OUTER
G1 F600 X115.7 Y121.3 E12.69885
G1 X115.7 Y113.7 E12.85052
G1 X119.3 Y113.7 E12.92236
G1 X119.3 Y121.3 E13.07403
G0 F9000 X119.03 Y121.03
G0 X118.39 Y120.11
G0 X118.11 Y120.11
;TYPE:SKIN
G1 F600 X116.89 Y120.11 E13.09837
G1 X116.89 Y114.89 E13.20254
G1 X118.11 Y114.89 E13.22689
G1 X118.11 Y120.11 E13.33106
G0 F9000 X118.39 Y120.11
G0 X117.12 Y120.39
G0 X117.12 Y119.949
G1 F600 X117.049 Y119.877 E13.33308
G0 F9000 X117.049 Y119.312
G1 F600 X117.686 Y119.949 E13.35105
G0 F9000 X117.949 Y119.646
